X:1
T:Jesus, Strong to Deliver
T:Jesus, Strong to Deliver
T:J. P. Weston
T:W. Wray, 1889
T:Public Domain Courtesy of the Cyber Hymnal™
C:J. P. Weston
Z:Public Domain
Z:Courtesy of the Cyber Hymnal™
%%score 1 ( 2 3 )
L:1/8
Q:1/4=95
M:6/8
K:Bb
V:1 treble 
V:2 bass 
V:3 bass 
V:1
 [DB][CA][DB] [EG][EB][EG] | [DF]3 [B,D]3 | [DB][DB][DB] [FB][EA][DB] | [Fc]6 | %4
w: 1.~When in my sor- row, He|found me,|Found me, and bade me be|whole,|
w: 2.~When in the tem- pest, He’ll|hide us,|When in the storm, He’ll be|near;|
w: 3.~Why are you doubt- ing and|fear- ing?|Why are you still un- der|sin?|
w: 4.~You say, “I’m weak, I am|help- less,|I’ve tried a- gain and a-|gain”;|
 [Fd][Fc][Fd] [Ff]2 [Fd]/[^Fc]/ | [GB][EG][FA] [FB]3 | [Fd][Ge][Fd] [Ec][EG][EA] | %7
w: Turned all my night in- to|hea- ven- ly light,|From me my bur- den did|
w: All the way ’long, He will|car- ry us on,|We will have no- thing to|
w: Have you not found that His|grace doth a- bound?|Might- y to save, let Him|
w: This may be true, for it’s|not what you do:|Je- sus is might- y to|
 [DB]3- [DB]2 z ||"^Refrain" [B,D][CE][^C=E] [DF][DB][_E=c] | [Fd]3 [Fd]3 | [Fd][Fe][Fd] [Fc]3 | %11
w: roll. *||||
w: fear. *||||
w: in! *||||
w: save. *||||
 [Ec][Ed][Ec] [DB]3 | [B,D][CE][^C=E] [DF][DB][_E=c] | [Fd]3 [Fd]3 | [Fd][Fe][Fd] [Fc][Fd][Ec] | %15
w: ||||
w: ||||
w: ||||
w: ||||
 [DB]3- [DB]2 z |] %16
w: |
w: |
w: |
w: |
V:2
 [B,,B,][B,,B,][B,,B,] [E,B,][G,B,][E,B,] | [B,,B,]3 [B,,F,]3 | %2
w: ||
 [B,,F,][B,,F,][B,,F,] [D,F,][C,F,][B,,B,] | [F,A,]6 | %4
w: ||
 [B,,B,][B,,B,][B,,B,] [D,B,]2 [B,,B,]/[D,B,]/ | [E,G,][E,B,][C,E] [B,,D]3 | %6
w: ||
 [F,D][F,B,][F,B,] [F,A,][F,B,][F,C] | [B,,B,]3- [B,,B,]2 z || %8
w: ||
 [B,,F,][B,,F,][B,,F,] [B,,F,][B,,F,][F,A,] | B,3 [B,,B,]3 | [F,B,][F,C][F,A,] [F,A,]3 | %11
w: Je- sus is strong to de-|liv- er,|Might- y to save,|
 [F,A,][F,B,][F,A,] [B,,B,]3 | [B,,F,][B,,F,][B,,F,] [B,,F,][B,,F,][F,A,] | B,3 [B,,B,]3 | %14
w: might- y to save!|Je- sus is strong to de-|liv- er,|
 [F,B,][F,C][F,B,] [F,A,][F,B,][F,A,] | [B,,B,]3- [B,,B,]2 z |] %16
w: Je- sus is might- y to|save! *|
V:3
 x6 | x6 | x6 | x6 | x6 | x6 | x6 | x6 || x6 | B,3 x3 | x6 | x6 | x6 | B,3 x3 | x6 | x6 |] %16

